icons/linear-ele-communication-message-chat-square.svg

<svg xmlns="http://www.w3.org/2000/svg" width="32px" height="32px" viewBox="0 0 32 32" version="1.1">
    <title>linear-ele-communication-message-chat-square</title>
    <g id="linear-ele-communication-message-chat-square" stroke-width="1" fill-rule="evenodd">
        <path d="M25,4 C27.209139,4 29,5.790861 29,8 L29,21 C29,23.209139 27.209139,25 25,25 L8.414,25 L4.70710678,28.7071068 C4.1045317,29.3096819 3.09281919,28.9276677 3.00598327,28.1136309 L3,28 L3,8 C3,5.790861 4.790861,4 7,4 L25,4 Z M25,6 L7,6 C5.8954305,6 5,6.8954305 5,8 L5,25.585 L7.29289322,23.2928932 C7.44917353,23.1366129 7.65185492,23.0374017 7.86855602,23.0086724 L8,23 L25,23 C26.1045695,23 27,22.1045695 27,21 L27,8 C27,6.8954305 26.1045695,6 25,6 Z" id="&#24418;&#29366;" fill-rule="nonzero" />
    </g>
</svg>

<svg xmlns="http://www.w3.org/2000/svg" viewBox="0 0 32 32"><path fill="currentColor" d="M25 4a4 4 0 0 1 4 4v13a4 4 0 0 1-4 4H8.414l-3.707 3.707c-.602.603-1.614.22-1.701-.593L3 28V8a4 4 0 0 1 4-4zm0 2H7a2 2 0 0 0-2 2v17.585l2.293-2.292a1 1 0 0 1 .576-.284L8 23h17a2 2 0 0 0 2-2V8a2 2 0 0 0-2-2"/></svg>
